X:2020
T:Cock and the Hen, The
R:slip jig
S:Cathal McConnell
N:Also in Bm, see #51
D:Joe McHugh & Barry Carroll: The Long Finger.
D:Dervish: Playing with Fire
Z:id:hn-slipjig-14
M:9/8
K:F#m
~F3 FEF ~c2E|~F3 FEF AFE|~F3 FEF c2d|ecA BAF AFE:|
|:ecA ABc d2f|ecA ABc BAF|ecA ABc d2B|cBA BAF AFE:|
